X: 714
T: WHEN SICK IS IT TEA YOU WANT?
M:6/8
L:1/8
B:O'NEILL'S 714
N:"collected by F. O'Neill"
Z:Transcribed by A. LEE WORMAN
K:D
Add dcB|ABA AFA|Add d2 e|fdB B2 A|
Add dcB|ABA AFA|dfd ege|fdd d2 z:|
||afd dcd|BGG G2 g|bge ede|cAA A2 A|
Add dcB|ABA AFA|dfd ege|fdd d2 z:|


